X:1
T:Title
%%score { ( 1 3 5 ) | ( 2 4 ) }
L:1/8
M:4/4
K:Ab
V:1 treble nm="Grand Piano"
V:3 treble 
V:5 treble 
V:2 treble 
V:4 treble 
V:1
 z4 z2[Q:1/4=100] c2 | e3 c d2 c2 | z4 z2 .G2 | c3 B F2 G2 |[M:3/4] [_CF]4 [=CE]2 |[M:1/4] [Ec]2 | %6
[M:4/4] e3 c d2 c2 | z4 z2 .G2 | c3 B E2 c2 | [CA]6 z2 | c2 z z/ c/ [Gc]2 c>c | [Fd]4 [Ed]4 | %12
 c2 z z/ c/ [Gc]2 c>c | [Fd]4 [Ed]4 | c2 z z/ c/ c2 c2 | F2 F2 [Fd]4[K:bass] | =d2 z z/ d/ d2 d2 | %17
 [Bd]8 | c2 z z/ c/ [Gc]2 c>c | [Fd]4 [Ed]4 | c2 z z/ c/ [Bc]2 [Ac]2 | [Fd]6[K:bass] z2 | %22
 d2 d2 a>f d>A | e2 e2 a>e c>A | [Ae]2 [Ae]>[Ae] [Ge]2 [Ge]2 |[M:3/4] [EA]6 |] %26
V:2
 z4 z2 [A,EA]2 | [A,CA]3[K:bass] [A,E] [F,=A,F]2 [F,A,E]2 | [B,,A,]3 [B,,A,] [B,,A,]2 [B,,A,]2 | %3
 [E,G,D]3 [E,G,D] [E,G,D]2 [E,D]2 |[M:3/4] =D,4 E,2 |[M:1/4] [A,,A,]2 | %6
[M:4/4][K:treble] [A,CA]3 [A,E][K:bass] [F,=A,F]2 [F,A,E]2 | [B,,A,]3 [B,,A,] [B,,A,]2 [B,,A,]2 | %8
 [E,G,D]3 [E,G,D] [E,G,D]2 [E,G,D]2 | [A,,A,]6 z2 | z2[K:treble] A>A[K:bass] z2 z z/[K:treble] G/ | %11
 (3[E,,E,][E,G,B,][E,G,B,] (3[E,G,B,][E,G,B,][E,G,B,] (3[E,G,B,D][E,G,][E,G,] (3[E,G,B,][E,G,B,][E,G,B,] | %12
 z2[K:treble] A>A[K:bass] z2 z z/[K:treble] G/ | %13
 (3[E,,E,][E,G,B,][E,G,B,] (3[E,G,B,][E,G,B,][E,G,B,] (3[E,G,B,D][E,G,][E,G,] (3[E,G,B,][E,G,B,][E,G,B,] | %14
 z2[K:treble] A>A z2 _G2[K:bass] | z2 z z/ =E/ z4 | z2 F>G z2 F2 | %17
 (3[E,,E,][E,G,B,][E,G,B,] (3[E,G,B,D][E,G,B,][E,G,B,] (3[E,G,B,D][E,G,B,][E,G,B,] (3[E,G,B,D][E,G,B,][E,G,B,] | %18
 z2[K:treble] A>A[K:bass] z2 z z/[K:treble] G/ | %19
 (3[E,,E,][E,G,B,][E,G,B,] (3[E,G,B,][E,G,B,][E,G,B,] (3[E,G,B,D][E,G,][E,G,] (3[E,G,B,][E,G,B,][E,G,B,] | %20
 z2[K:treble] G>A[K:bass] z4 | %21
 (3[D,,D,][D,F,][D,F,] (3[D,F,][D,F,][D,F,] (3[D,F,][D,F,][D,F,] (3[D,F,][D,F,][D,F,] | %22
 [DFA]2 [DFA]2 z4 | [A,CA]2 [A,CA]2 z4 | [E,C]2 [E,C]>[E,C] [E,D]2 [E,D]2 |[M:3/4] [A,C]6 |] %26
V:3
 x8 | x8 | [=Dc]3 [DB] [DF]2 D-[DA] | x8 |[M:3/4] x6 |[M:1/4] x2 |[M:4/4] x8 | %7
 [=Dc]3 [DB] [DF]2 D-[DA] | x8 | x8 | A2 c2 z2 F2 | z2 (3DDD z2 (3DDD | A2 c2 z2 F2 | %13
 z2 (3DDD z2 (3DDD | A2 c2 z4 | d2 d>d z2[K:bass] (3A,A,A, | F2 =d2 A2 z2 | (3z DD g2 f2 e2 | %18
 A2 c2 z2 F2 | z2 (3DDD z2 (3DDD | A2 c2 z4 | (3z[K:bass] A,A, z2 z2 (3A,A,A, | x8 | x8 | x8 | %25
[M:3/4] x6 |] %26
V:4
 x8 | x3[K:bass] x5 | x8 | x8 |[M:3/4] A,,6 |[M:1/4] x2 |[M:4/4][K:treble] x4[K:bass] x4 | x8 | %8
 x8 | x8 | %10
 (3[A,,A,][K:treble][A,C][A,C] (3[A,CE][A,C][A,C][K:bass] (3A,A,A, (3[A,CE][A,C][K:treble][A,C] | %11
 x8 | %12
 (3[A,,A,][K:treble][A,C][A,C] (3[A,CE][A,C][A,C][K:bass] (3A,A,A, (3[A,CE][A,C][K:treble][A,C] | %13
 x8 | %14
 (3[A,,A,][K:treble][A,C][A,C] (3[A,CE][A,C][A,C] (3[A,CE][A,C][A,C] (3[A,CE][K:bass][A,C][A,C] | %15
 (3[D,,D,][D,F,][D,F,] (3[D,F,A,][D,F,][D,F,] (3[D,F,A,][D,F,][D,F,] (3[D,F,][D,F,][D,F,] | %16
 (3[B,,,B,,][F,B,][F,B,] (3[F,B,=D][F,B,][F,B,] (3[F,B,D][F,B,][F,B,] (3[F,B,D][F,B,][F,B,] | x8 | %18
 (3[A,,A,][K:treble][A,C][A,C] (3[A,CE][A,C][A,C][K:bass] (3A,A,A, (3[A,CE][A,C][K:treble][A,C] | %19
 x8 | (3[A,,A,][K:treble][A,C][A,C] (3[A,CE][A,C][A,C][K:bass] (3A,A,A, (3A,A,A, | x8 | x8 | x8 | %24
 x8 |[M:3/4] x6 |] %26
V:5
 x8 | x8 | x8 | x8 |[M:3/4] x6 |[M:1/4] x2 |[M:4/4] x8 | x8 | x8 | x8 | %10
 (3z EE (3z EE (3[CE][CE][CE] (3z EE | (3z DD z2 (3z [B,D][B,D] z2 | %12
 (3z EE (3z EE (3[CE][CE][CE] (3z EE | (3z DD z2 (3z [B,D][B,D] z2 | (3z EE (3z EE (3z EE (3z EE | %15
 (3z A,A, (3z A,A, (3z[K:bass] A,A, z2 | (3z =DD (3z DD (3z DD (3z DD | z2 (3z DD (3z DD (3z DD | %18
 (3z EE (3z EE (3[CE][CE][CE] (3z EE | (3z DD z2 (3z [B,D][B,D] z2 | %20
 (3z EE (3z EE (3[CE][CE][CE] (3[CE][CE][CE] | z2[K:bass] (3A,A,A, (3A,A,A, z2 | x8 | x8 | x8 | %25
[M:3/4] x6 |] %26

